modules/feathericon/icons/tablet.svg

<svg width="10" height="14" viewBox="0 0 10 14" xmlns="http://www.w3.org/2000/svg"><path d="M10 12.995c0 1.005-1 1-1 1L1 14s-1 0-1-1V1c0-1 1-1 1-1h8s1 0 1 1v11.995zM1 12h8V2H1v10z" fill="#000" fill-rule="evenodd"/></svg>

<?xml version="1.0" encoding="UTF-8"?>
<svg width="10px" height="14px" viewBox="0 0 10 14" version="1.1" xmlns="http://www.w3.org/2000/svg" xmlns:xlink="http://www.w3.org/1999/xlink">
    <!-- Generator: sketchtool 48.1 (47250) - http://www.bohemiancoding.com/sketch -->
    <title>tablet</title>
    <desc>Created with sketchtool.</desc>
    <defs></defs>
    <g id="devices" stroke="none" stroke-width="1" fill="none" fill-rule="evenodd">
        <g id="tablet" fill="#000000">
            <path d="M10,12.995 C10,14 9,13.995 9,13.995 L1,14 C1,14 0,14 0,13 L0,1 C0,0 1,0 1,0 L9,0 C9,0 10,-4.16333634e-16 10,1 L10,12.995 Z M1,12 L9,12 L9,2 L1,2 L1,12 Z" id="Shape"></path>
        </g>
    </g>
</svg>
